elusive/barcode.svg

<?xml version="1.0" encoding="UTF-8" standalone="no"?>
<!-- Generator: IcoMoon.io -->

<svg
   xmlns:dc="http://purl.org/dc/elements/1.1/"
   xmlns:cc="http://creativecommons.org/ns#"
   xmlns:rdf="http://www.w3.org/1999/02/22-rdf-syntax-ns#"
   xmlns:svg="http://www.w3.org/2000/svg"
   xmlns="http://www.w3.org/2000/svg"
   xmlns:sodipodi="http://sodipodi.sourceforge.net/DTD/sodipodi-0.dtd"
   xmlns:inkscape="http://www.inkscape.org/namespaces/inkscape"
   id="svg2"
   version="1.1"
   data-tags="remove-circle, cancel, close, remove, delete"
   height="1200"
   width="1200"
   data-du=""
   viewBox="0 0 1200 1200"
   inkscape:version="0.48.4 r9939"
   sodipodi:docname="barcode.svg">
  <defs
     id="defs3074" />
  <sodipodi:namedview
     pagecolor="#ffffff"
     bordercolor="#666666"
     borderopacity="1"
     objecttolerance="10"
     gridtolerance="10"
     guidetolerance="10"
     inkscape:pageopacity="0"
     inkscape:pageshadow="2"
     inkscape:window-width="1535"
     inkscape:window-height="876"
     id="namedview3072"
     showgrid="false"
     inkscape:zoom="0.18624688"
     inkscape:cx="1918.0743"
     inkscape:cy="-213.09829"
     inkscape:window-x="65"
     inkscape:window-y="24"
     inkscape:window-maximized="1"
     inkscape:current-layer="svg2" />
  <metadata
     id="metadata62">
    <rdf:RDF>
      <cc:Work
         rdf:about="">
        <dc:format>image/svg+xml</dc:format>
        <dc:type
           rdf:resource="http://purl.org/dc/dcmitype/StillImage" />
        <dc:title />
      </cc:Work>
    </rdf:RDF>
  </metadata>
  <path
     d="M 0,99.869961 0,1100.13 l 100.26008,0 0,-1000.260039 -100.26008,0 z m 186.13459,0 0,1000.260039 24.08973,0 0,-1000.260039 -24.08973,0 z m 57.88362,0 0,1000.260039 76.21911,0 0,-1000.260039 -76.21911,0 z m 153.65734,0 0,1000.260039 32.52601,0 0,-1000.260039 -32.52601,0 z m 118.44929,0 0,1000.260039 24.04096,0 0,-1000.260039 -24.04096,0 z m 34.37906,0 0,1000.260039 99.62614,0 0,-1000.260039 -99.62614,0 z m 159.41157,0 0,1000.260039 50.17881,0 0,-1000.260039 -50.17881,0 z m 149.02471,0 0,1000.260039 11.11834,0 0,-1000.260039 -11.11834,0 z m 87.63004,0 0,1000.260039 33.5013,0 0,-1000.260039 -33.5013,0 z m 119.37578,0 0,1000.260039 24.0898,0 0,-1000.260039 -24.0898,0 z m 34.4279,0 0,1000.260039 99.6261,0 0,-1000.260039 -99.6261,0 z"
     id="path3031"
     inkscape:connector-curvature="0" />
</svg>

<?xml version="1.0" encoding="utf-8"?>
<!-- Generator: Adobe Illustrator 16.0.0, SVG Export Plug-In . SVG Version: 6.00 Build 0)  -->
<!DOCTYPE svg PUBLIC "-//W3C//DTD SVG 1.1//EN" "http://www.w3.org/Graphics/SVG/1.1/DTD/svg11.dtd">
<svg version="1.1"
	 id="svg2" xmlns:dc="http://purl.org/dc/elements/1.1/" xmlns:cc="http://creativecommons.org/ns#" xmlns:rdf="http://www.w3.org/1999/02/22-rdf-syntax-ns#" xmlns:svg="http://www.w3.org/2000/svg" xmlns:sodipodi="http://sodipodi.sourceforge.net/DTD/sodipodi-0.dtd" xmlns:inkscape="http://www.inkscape.org/namespaces/inkscape" sodipodi:docname="barcode.svg" inkscape:version="0.48.4 r9939"
	 xmlns="http://www.w3.org/2000/svg" xmlns:xlink="http://www.w3.org/1999/xlink" x="0px" y="0px" width="1200px" height="1200px"
	 viewBox="0 0 1200 1200" enable-background="new 0 0 1200 1200" xml:space="preserve">
<sodipodi:namedview  inkscape:cy="-213.09829" inkscape:cx="1918.0743" inkscape:zoom="0.18624688" showgrid="false" id="namedview3072" guidetolerance="10" gridtolerance="10" objecttolerance="10" borderopacity="1" bordercolor="#666666" pagecolor="#ffffff" inkscape:current-layer="svg2" inkscape:window-maximized="1" inkscape:window-y="24" inkscape:window-height="876" inkscape:window-width="1535" inkscape:pageshadow="2" inkscape:pageopacity="0" inkscape:window-x="65">
	</sodipodi:namedview>
<path id="path3031" inkscape:connector-curvature="0" d="M0,99.87v1000.26h100.26V99.87H0L0,99.87z M186.135,99.87v1000.26h24.089
	V99.87H186.135L186.135,99.87z M244.018,99.87v1000.26h76.219V99.87H244.018L244.018,99.87z M397.676,99.87v1000.26h32.525V99.87
	H397.676L397.676,99.87z M516.125,99.87v1000.26h24.041V99.87H516.125L516.125,99.87z M550.504,99.87v1000.26h99.626V99.87H550.504
	L550.504,99.87z M709.915,99.87v1000.26h50.18V99.87H709.915L709.915,99.87z M858.94,99.87v1000.26h11.118V99.87H858.94
	L858.94,99.87z M946.57,99.87v1000.26h33.501V99.87H946.57L946.57,99.87z M1065.946,99.87v1000.26h24.09V99.87H1065.946
	L1065.946,99.87z M1100.374,99.87v1000.26H1200V99.87H1100.374L1100.374,99.87z"/>
</svg>
